Yaru++/mimetypes/16/text-html.svg

<svg height="16" viewBox="0 0 4.233125 4.233125" width="16" xmlns="http://www.w3.org/2000/svg" xmlns:xlink="http://www.w3.org/1999/xlink"><linearGradient id="a" gradientUnits="userSpaceOnUse" x1="2.116711" x2="2.116711" y1=".264569" y2="3.968554"><stop offset="0" stop-color="#fff"/><stop offset=".125" stop-color="#fff" stop-opacity=".098039"/><stop offset=".92500001" stop-color="#fff" stop-opacity=".098039"/><stop offset="1" stop-color="#fff" stop-opacity=".498039"/></linearGradient><linearGradient id="b" gradientTransform="matrix(0 -.00953618 .00953591 0 -.942985 4.473643)" gradientUnits="userSpaceOnUse" x1="459.03448" x2="35.310345" y1="419.23337" y2="207.36522"><stop offset="0" stop-color="#f2f2f2"/><stop offset="1" stop-color="#f9f9f9"/></linearGradient><path d="m1.3483185.26457027c-.1902366 0-.3444309.00368-.48573256.027388-.14130436.0237323-.28264046.0730958-.39065659.1808579-.10801348.1077595-.15783472.2495507-.18137354.3911699-.02354675.14162183-.02677186.29644573-.02584851.48728563v.7652908 1.0314115c-.00079371.1900038.002381.3445631.0258485.4857352.0235468.1416192.0733574.2834104.18137354.3911699.10801613.1077621.24935223.1571389.39065659.1808576.14130167.023732.29549597.027388.48573257.027388h1.5367831c.1902367 0 .3440949-.00362.4852167-.027388.1411245-.0237584.2824765-.0735294.3901381-.1813736.1076616-.1078441.1571653-.249413.1808576-.3906539.0236949-.1412435.0273883-.2951308.0273883-.4857352v-1.0314115-.7937109l-1.0582812-1.05828133z" opacity=".1"/><path d="m1.3485196.26457027c-.74283143 0-.82275813.076299-.81911763.82063363v1.0313586 1.0313586c-.003651.7443342.0762862.8206336.81911763.8206336h1.5364921c.7428341 0 .8191203-.076289.8191203-.8206336v-1.0313586-1.0582813l-.7937109-.79371093z" fill="none" opacity=".2" stroke="#000" stroke-width=".529141"/><path d="m1.3485196.26457027c-.74283143 0-.82275813.076299-.81911763.82063363v1.0313586 1.0313586c-.003651.7443342.0762862.8206336.81911763.8206336h1.5364921c.7428341 0 .8191203-.076289.8191203-.8206336v-1.0313586-1.0582813l-.7937109-.79371093z" fill="url(#b)"/><g fill="#5884f4"><path d="m.79378972 2.4116748.77188648-.3249109.070008.217207-.5636565.2190007.5636565.2190007-.070008.2172043-.77188648-.3249108z"/><path d="m1.9540602 3.3917914h-.2746478l.6031489-1.7376422h.2710575z"/><path d="m3.4394929 2.6342658-.7718866.3249108-.0700079-.2172043.5636565-.2190007-.5636565-.2190007.0700079-.217207.7718866.3249109z"/></g><path d="m2.1167101.26457027v3.70398443h.7683915c.7428341 0 .8190304-.076236.8190304-.8205807v-1.0314115-1.0582813l-.7937109-.79371093z" fill="#fff" opacity=".2"/><path d="m.5292882 2.1165625v1.0314115c-.003651.7443342.0761989.8205807.8190303.8205807h1.5367831c.7428341 0 .8190304-.076236.8190304-.8205807v-1.0314115z" fill="#fff" opacity=".2"/><path d="m1.3483185.26457027c-.7428314 0-.8226708.076247-.8190303.82058073v1.0314115 1.0314115c-.003651.7443342.0761989.8205807.8190303.8205807h1.5367831c.7428341 0 .8190304-.076236.8190304-.8205807v-1.0314115-1.0582813l-.7937109-.79371093zm0 .2645703h1.5621026l.5291406.52914063v1.0582813 1.0314115c0 .1815667-.00582.3159975-.019631.3984058-.013811.082406-.029841.09959-.034103.1038651-.00426.00426-.021245.020293-.1033491.034103-.082112.013816-.2161962.019636-.3973767.019636h-1.5367834c-.1811777 0-.3153969-.0063-.39788728-.02016-.082493-.013837-.10001551-.029235-.10438092-.033587-.004365-.00437-.0199486-.021324-.0335898-.1033491-.0136254-.08203-.0194988-.216564-.0185993-.3978899v-.0005292-1.0319062-1.0319274-.0005291c-.00079371-.18132863.004974-.31586003.0185993-.39789003.0136254-.08203.0292218-.098992.0335898-.1033491.004365-.00436.02188-.019737.10438092-.033587.0824904-.013837.21670958-.02016.39788728-.02016z" fill="url(#a)" opacity=".4"/><path d="m3.704132 1.3228516v-.2645704l-.7937109-.79371093h-.2645704v.4049434.01553.00833c0 .54761033.073304.63205063.6221715.62936523z" opacity=".2"/><path d="m3.704132 1.0581807-.7937109-.79361043v.2943847.012832.00688c0 .45177773.020822.48176413.4736364.47954963z" fill="#faf8f6"/></svg>

<?xml version="1.0" encoding="UTF-8" standalone="no"?>
<svg
   xmlns:dc="http://purl.org/dc/elements/1.1/"
   xmlns:cc="http://creativecommons.org/ns#"
   xmlns:rdf="http://www.w3.org/1999/02/22-rdf-syntax-ns#"
   xmlns:svg="http://www.w3.org/2000/svg"
   xmlns="http://www.w3.org/2000/svg"
   xmlns:xlink="http://www.w3.org/1999/xlink"
   xmlns:sodipodi="http://sodipodi.sourceforge.net/DTD/sodipodi-0.dtd"
   xmlns:inkscape="http://www.inkscape.org/namespaces/inkscape"
   height="16"
   viewBox="0 0 4.233125 4.233125"
   width="16"
   version="1.1"
   id="svg39"
   sodipodi:docname="text-html.svg"
   inkscape:version="0.92.5 (2060ec1f9f, 2020-04-08)">
  <metadata
     id="metadata45">
    <rdf:RDF>
      <cc:Work
         rdf:about="">
        <dc:format>image/svg+xml</dc:format>
        <dc:type
           rdf:resource="http://purl.org/dc/dcmitype/StillImage" />
      </cc:Work>
    </rdf:RDF>
  </metadata>
  <defs
     id="defs43">
    <linearGradient
       gradientTransform="matrix(0.26457031,0,0,0.26457031,-84.662351,-62.438594)"
       inkscape:collect="always"
       xlink:href="#linearGradient927"
       id="linearGradient993"
       x1="328"
       y1="237"
       x2="328"
       y2="251"
       gradientUnits="userSpaceOnUse" />
    <linearGradient
       inkscape:collect="always"
       id="linearGradient927">
      <stop
         style="stop-color:#ffffff;stop-opacity:1;"
         offset="0"
         id="stop923" />
      <stop
         id="stop933"
         offset="0.125"
         style="stop-color:#ffffff;stop-opacity:0.09803922" />
      <stop
         id="stop931"
         offset="0.92500001"
         style="stop-color:#ffffff;stop-opacity:0.09803922" />
      <stop
         style="stop-color:#ffffff;stop-opacity:0.49803922"
         offset="1"
         id="stop925" />
    </linearGradient>
    <linearGradient
       inkscape:collect="always"
       xlink:href="#linearGradient4338"
       id="linearGradient920"
       gradientUnits="userSpaceOnUse"
       gradientTransform="matrix(0,-0.00953618,0.00953591,0,-0.9429847,4.4736432)"
       x1="459.03448"
       y1="419.23337"
       x2="35.310345"
       y2="207.36522" />
    <linearGradient
       inkscape:collect="always"
       id="linearGradient4338">
      <stop
         style="stop-color:#f2f2f2;stop-opacity:1"
         offset="0"
         id="stop4340" />
      <stop
         style="stop-color:#f9f9f9;stop-opacity:1"
         offset="1"
         id="stop4342" />
    </linearGradient>
  </defs>
  <sodipodi:namedview
     pagecolor="#ffffff"
     bordercolor="#666666"
     borderopacity="1"
     objecttolerance="10"
     gridtolerance="10"
     guidetolerance="10"
     inkscape:pageopacity="0"
     inkscape:pageshadow="2"
     inkscape:window-width="834"
     inkscape:window-height="480"
     id="namedview41"
     showgrid="false"
     inkscape:zoom="14.75"
     inkscape:cx="8"
     inkscape:cy="8"
     inkscape:window-x="0"
     inkscape:window-y="28"
     inkscape:window-maximized="0"
     inkscape:current-layer="svg39" />
  <linearGradient
     id="a"
     gradientUnits="userSpaceOnUse"
     x1="328"
     x2="328"
     y1="237"
     y2="251">
    <stop
       offset="0"
       stop-color="#fff"
       id="stop2" />
    <stop
       offset=".125"
       stop-color="#fff"
       stop-opacity=".098039"
       id="stop4" />
    <stop
       offset=".92500001"
       stop-color="#fff"
       stop-opacity=".098039"
       id="stop6" />
    <stop
       offset="1"
       stop-color="#fff"
       stop-opacity=".498039"
       id="stop8" />
  </linearGradient>
  <clipPath
     id="b">
    <path
       d="m325.09646 237c-2.80769 0-3.10979.28839-3.09603 3.10176v3.89824 3.89824c-.0138 2.81337.28834 3.10176 3.09603 3.10176h5.8075c2.8077 0 3.09604-.28835 3.09604-3.10176v-3.89824-3.89824c0-2.8134-.28835-3.10176-3.09604-3.10176z"
       id="path11" />
  </clipPath>
  <linearGradient
     id="c"
     gradientTransform="matrix(0 -.00953618 .00953591 0 -.942984 4.473639)"
     gradientUnits="userSpaceOnUse"
     x1="459.03448"
     x2="35.310345"
     y1="419.23337"
     y2="207.36522">
    <stop
       offset="0"
       stop-color="#f2f2f2"
       id="stop14" />
    <stop
       offset="1"
       stop-color="#f9f9f9"
       id="stop16" />
  </linearGradient>
  <path
     style="color:#000000;font-style:normal;font-variant:normal;font-weight:normal;font-stretch:normal;font-size:medium;line-height:normal;font-family:sans-serif;font-variant-ligatures:normal;font-variant-position:normal;font-variant-caps:normal;font-variant-numeric:normal;font-variant-alternates:normal;font-feature-settings:normal;text-indent:0;text-align:start;text-decoration:none;text-decoration-line:none;text-decoration-style:solid;text-decoration-color:#000000;letter-spacing:normal;word-spacing:normal;text-transform:none;writing-mode:lr-tb;direction:ltr;text-orientation:mixed;dominant-baseline:auto;baseline-shift:baseline;text-anchor:start;white-space:normal;shape-padding:0;clip-rule:nonzero;display:inline;overflow:visible;visibility:visible;opacity:0.1;isolation:auto;mix-blend-mode:normal;color-interpolation:sRGB;color-interpolation-filters:linearRGB;solid-color:#000000;solid-opacity:1;vector-effect:none;fill:#000000;fill-opacity:1;fill-rule:nonzero;stroke:none;stroke-width:0.52914065;stroke-linecap:butt;stroke-linejoin:miter;stroke-miterlimit:4;stroke-dasharray:none;stroke-dashoffset:0;stroke-opacity:1;marker:none;color-rendering:auto;image-rendering:auto;shape-rendering:auto;text-rendering:auto;enable-background:accumulate"
     d="m 1.3483185,0.26457027 c -0.1902366,0 -0.3444309,0.00368 -0.48573256,0.027388 C 0.72128158,0.31569057 0.57994548,0.36505407 0.47192935,0.47281617 0.36391587,0.58057567 0.31409463,0.72236687 0.29055581,0.86398607 0.26700906,1.0056079 0.26378395,1.1604318 0.2647073,1.3512717 V 2.1165625 3.147974 c -7.9371e-4,0.1900038 0.002381,0.3445631 0.0258485,0.4857352 0.0235468,0.1416192 0.0733574,0.2834104 0.18137354,0.3911699 0.10801613,0.1077621 0.24935223,0.1571389 0.39065659,0.1808576 0.14130167,0.023732 0.29549597,0.027388 0.48573257,0.027388 h 1.5367831 c 0.1902367,0 0.3440949,-0.00362 0.4852167,-0.027388 C 3.5114428,4.1819783 3.6527948,4.1322073 3.7604564,4.0243631 3.868118,3.916519 3.9176217,3.7749501 3.941314,3.6337092 3.9650089,3.4924657 3.9687023,3.3385784 3.9687023,3.147974 V 2.1165625 1.3228516 L 2.9104211,0.26457027 Z"
     id="path997"
     inkscape:connector-curvature="0"
     sodipodi:nodetypes="scscccccccsscscscccs" />
  <path
     sodipodi:nodetypes="scccssscccs"
     inkscape:connector-curvature="0"
     id="path928"
     d="m 1.3485196,0.26457027 c -0.74283143,0 -0.82275813,0.076299 -0.81911763,0.82063363 v 1.0313586 1.0313586 c -0.003651,0.7443342 0.0762862,0.8206336 0.81911763,0.8206336 h 1.5364921 c 0.7428341,0 0.8191203,-0.076289 0.8191203,-0.8206336 V 2.1165625 1.0582812 L 2.9104211,0.26457027 Z"
     style="color:#000000;display:inline;overflow:visible;visibility:visible;opacity:0.2;fill:none;fill-opacity:1;fill-rule:nonzero;stroke:#000000;stroke-width:0.52914065;stroke-miterlimit:4;stroke-dasharray:none;stroke-opacity:1;marker:none;enable-background:accumulate" />
  <path
     style="color:#000000;display:inline;overflow:visible;visibility:visible;fill:url(#linearGradient920);fill-opacity:1;fill-rule:nonzero;stroke:none;stroke-width:0.26457033;marker:none;enable-background:accumulate"
     d="m 1.3485196,0.26457027 c -0.74283143,0 -0.82275813,0.076299 -0.81911763,0.82063363 v 1.0313586 1.0313586 c -0.003651,0.7443342 0.0762862,0.8206336 0.81911763,0.8206336 h 1.5364921 c 0.7428341,0 0.8191203,-0.076289 0.8191203,-0.8206336 V 2.1165625 1.0582812 L 2.9104211,0.26457027 Z"
     id="path918"
     inkscape:connector-curvature="0"
     sodipodi:nodetypes="scccssscccs" />
  <path
     inkscape:connector-curvature="0"
     id="path965"
     style="font-style:normal;font-variant:normal;font-weight:bold;font-stretch:normal;font-size:medium;line-height:125%;font-family:Ubuntu;-inkscape-font-specification:'Ubuntu, Normal';text-align:center;letter-spacing:0px;word-spacing:0px;writing-mode:lr-tb;text-anchor:middle;display:inline;fill:#5884f4;fill-opacity:1;stroke:none;stroke-width:0.2645703px;stroke-linecap:butt;stroke-linejoin:miter;stroke-opacity:1;enable-background:new"
     d="M 0.79378972,2.4116748 1.5656762,2.0867639 1.6356842,2.3039709 1.0720277,2.5229716 1.6356842,2.7419723 1.5656762,2.9591766 0.79378972,2.6342658 Z" />
  <path
     inkscape:connector-curvature="0"
     id="path967-5"
     style="font-style:normal;font-variant:normal;font-weight:bold;font-stretch:normal;font-size:medium;line-height:125%;font-family:Ubuntu;-inkscape-font-specification:'Ubuntu, Normal';text-align:center;letter-spacing:0px;word-spacing:0px;writing-mode:lr-tb;text-anchor:middle;display:inline;fill:#5884f4;fill-opacity:1;stroke:none;stroke-width:0.2645703px;stroke-linecap:butt;stroke-linejoin:miter;stroke-opacity:1;enable-background:new"
     d="M 1.9540602,3.3917914 H 1.6794124 L 2.2825613,1.6541492 h 0.2710575 z" />
  <path
     inkscape:connector-curvature="0"
     id="path969-3"
     style="font-style:normal;font-variant:normal;font-weight:bold;font-stretch:normal;font-size:medium;line-height:125%;font-family:Ubuntu;-inkscape-font-specification:'Ubuntu, Normal';text-align:center;letter-spacing:0px;word-spacing:0px;writing-mode:lr-tb;text-anchor:middle;display:inline;fill:#5884f4;fill-opacity:1;stroke:none;stroke-width:0.2645703px;stroke-linecap:butt;stroke-linejoin:miter;stroke-opacity:1;enable-background:new"
     d="M 3.4394929,2.6342658 2.6676063,2.9591766 2.5975984,2.7419723 3.1612549,2.5229716 2.5975984,2.3039709 2.6676063,2.0867639 3.4394929,2.4116748 Z" />
  <path
     style="color:#000000;display:inline;overflow:visible;visibility:visible;opacity:0.2;fill:#ffffff;fill-opacity:1;fill-rule:nonzero;stroke:none;stroke-width:0.26457033;marker:none;enable-background:accumulate"
     d="M 2.1167101,0.26457027 V 3.9685547 h 0.7683915 c 0.7428341,0 0.8190304,-0.076236 0.8190304,-0.8205807 V 2.1165625 1.0582812 L 2.9104211,0.26457027 Z"
     id="path1009"
     inkscape:connector-curvature="0"
     sodipodi:nodetypes="ccsscccc" />
  <path
     style="color:#000000;display:inline;overflow:visible;visibility:visible;opacity:0.2;fill:#ffffff;fill-opacity:1;fill-rule:nonzero;stroke:none;stroke-width:0.26457033;marker:none;enable-background:accumulate"
     d="M 0.5292882,2.1165625 V 3.147974 c -0.003651,0.7443342 0.0761989,0.8205807 0.8190303,0.8205807 h 1.5367831 c 0.7428341,0 0.8190304,-0.076236 0.8190304,-0.8205807 V 2.1165625 Z"
     id="path1016"
     inkscape:connector-curvature="0" />
  <path
     style="color:#000000;font-style:normal;font-variant:normal;font-weight:normal;font-stretch:normal;font-size:medium;line-height:normal;font-family:sans-serif;font-variant-ligatures:normal;font-variant-position:normal;font-variant-caps:normal;font-variant-numeric:normal;font-variant-alternates:normal;font-feature-settings:normal;text-indent:0;text-align:start;text-decoration:none;text-decoration-line:none;text-decoration-style:solid;text-decoration-color:#000000;letter-spacing:normal;word-spacing:normal;text-transform:none;writing-mode:lr-tb;direction:ltr;text-orientation:mixed;dominant-baseline:auto;baseline-shift:baseline;text-anchor:start;white-space:normal;shape-padding:0;clip-rule:nonzero;display:inline;overflow:visible;visibility:visible;opacity:0.4;isolation:auto;mix-blend-mode:normal;color-interpolation:sRGB;color-interpolation-filters:linearRGB;solid-color:#000000;solid-opacity:1;vector-effect:none;fill:url(#linearGradient993);fill-opacity:1;fill-rule:nonzero;stroke:none;stroke-width:0.52914065;stroke-linecap:butt;stroke-linejoin:miter;stroke-miterlimit:4;stroke-dasharray:none;stroke-dashoffset:0;stroke-opacity:1;marker:none;color-rendering:auto;image-rendering:auto;shape-rendering:auto;text-rendering:auto;enable-background:accumulate"
     clip-path="none"
     d="m 1.3483185,0.26457027 c -0.7428314,0 -0.8226708,0.076247 -0.8190303,0.82058073 V 2.1165625 3.147974 c -0.003651,0.7443342 0.0761989,0.8205807 0.8190303,0.8205807 h 1.5367831 c 0.7428341,0 0.8190304,-0.076236 0.8190304,-0.8205807 V 2.1165625 1.0582812 L 2.9104211,0.26457027 Z m 0,0.2645703 H 2.9104211 L 3.4395617,1.0582812 V 2.1165625 3.147974 c 0,0.1815667 -0.00582,0.3159975 -0.019631,0.3984058 -0.013811,0.082406 -0.029841,0.09959 -0.034103,0.1038651 -0.00426,0.00426 -0.021245,0.020293 -0.1033491,0.034103 -0.082112,0.013816 -0.2161962,0.019636 -0.3973767,0.019636 H 1.3483185 c -0.1811777,0 -0.3153969,-0.0063 -0.39788728,-0.02016 C 0.86793822,3.6699869 0.85041571,3.6545889 0.8460503,3.6502369 0.8416853,3.6458669 0.8261017,3.6289129 0.8124605,3.5468878 0.7988351,3.4648578 0.7929617,3.3303238 0.7938612,3.1489979 V 3.1484687 2.1165625 1.0846351 1.084106 c -7.9371e-4,-0.18132863 0.004974,-0.31586003 0.0185993,-0.39789003 0.0136254,-0.08203 0.0292218,-0.098992 0.0335898,-0.1033491 0.004365,-0.00436 0.02188,-0.019737 0.10438092,-0.033587 0.0824904,-0.013837 0.21670958,-0.02016 0.39788728,-0.02016 z"
     id="path937"
     inkscape:connector-curvature="0"
     sodipodi:nodetypes="scccssscccsscccscccssccccccccsccs" />
  <path
     inkscape:connector-curvature="0"
     style="color:#000000;display:inline;overflow:visible;visibility:visible;opacity:0.2;fill:#000000;fill-opacity:1;fill-rule:nonzero;stroke:none;stroke-width:0.06614863;marker:none;enable-background:accumulate"
     d="M 3.704132,1.3228516 V 1.0582812 L 2.9104211,0.26457027 H 2.6458507 v 0.4049434 0.01553 0.00833 c 0,0.54761033 0.073304,0.63205063 0.6221715,0.62936523 z"
     id="rect4158-0-3-62-2-3-7-3"
     sodipodi:nodetypes="ccccccscc" />
  <path
     inkscape:connector-curvature="0"
     style="color:#000000;display:inline;overflow:visible;visibility:visible;fill:#faf8f6;fill-opacity:1;fill-rule:nonzero;stroke:none;stroke-width:0.06614863;marker:none;enable-background:accumulate"
     d="M 3.704132,1.0581807 2.9104211,0.26457027 v 0.2943847 0.012832 0.00688 c 0,0.45177773 0.020822,0.48176413 0.4736364,0.47954963 z"
     id="rect4158-0-3-62-6-5-5"
     sodipodi:nodetypes="ccccscc" />
</svg>
